img/school/self-service/1.svg

<svg width="90" height="117" viewBox="0 0 90 117" fill="none" xmlns="http://www.w3.org/2000/svg">
<path d="M66.4301 99.2773H51" stroke="#009245" stroke-width="2" stroke-miterlimit="10"/>
<path d="M76.4504 93.7776C76.9732 92.5966 77.2424 91.3191 77.2405 90.0276V29.9375C77.2405 27.4842 76.266 25.1316 74.5312 23.3969C72.7965 21.6621 70.4437 20.6875 67.9905 20.6875H34.2705C31.8173 20.6875 29.4644 21.6621 27.7297 23.3969C25.995 25.1316 25.0205 27.4842 25.0205 29.9375V88.9375" stroke="#009245" stroke-width="2" stroke-miterlimit="10"/>
<path d="M44.7705 27.3184H57.4005" stroke="#009245" stroke-width="2" stroke-miterlimit="10"/>
<path d="M40.1899 28.0089C40.571 28.0089 40.88 27.6999 40.88 27.3188C40.88 26.9378 40.571 26.6289 40.1899 26.6289C39.8089 26.6289 39.5 26.9378 39.5 27.3188C39.5 27.6999 39.8089 28.0089 40.1899 28.0089Z" stroke="#009245" stroke-width="2" stroke-miterlimit="10"/>
<path d="M88.5602 115.757C88.5602 115.757 88.6302 92.3073 88.5602 84.3573C87.4402 78.7873 79.7802 63.4073 79.7802 63.4073L77.3301 60.9473" stroke="#009245" stroke-width="2" stroke-miterlimit="10"/>
<path d="M78.3804 96.2385L68.4904 79.6285C67.7949 78.6155 66.7381 77.9071 65.5369 77.6487C64.3356 77.3902 63.081 77.6012 62.0304 78.2385C57.6204 80.7985 60.2604 84.3585 60.2604 84.3585L67.3504 97.3585L62.6004 105.848L62.4703 115.738" stroke="#009245" stroke-width="2" stroke-miterlimit="10"/>
<path d="M54.8 85.8184H47.46C45.8473 85.8184 44.54 87.1257 44.54 88.7384V89.0784C44.54 90.691 45.8473 91.9984 47.46 91.9984H54.8C56.4127 91.9984 57.72 90.691 57.72 89.0784V88.7384C57.72 87.1257 56.4127 85.8184 54.8 85.8184Z" stroke="#009245" stroke-width="2" stroke-miterlimit="10"/>
<path d="M44.5403 116.198L51.1203 105.198C51.6003 103.638 52.8702 101.198 50.2102 98.7384C47.9002 96.6084 45.0802 97.8284 43.7402 98.7384L39.5603 105.078V74.7784C39.3703 72.8384 39.4302 69.6484 34.4902 69.6484C31.0702 69.6484 29.9902 72.8384 29.9902 74.7184L30.1102 100.408L28.4702 91.4084C28.1502 89.5084 25.3303 88.8084 24.0403 88.9584C23.2467 89.1088 22.5107 89.4778 21.9153 90.0237C21.3199 90.5696 20.8888 91.2708 20.6703 92.0485L20.3302 101.208L19.1503 93.5084C18.7879 92.5954 18.1355 91.8267 17.2935 91.3208C16.4515 90.8149 15.4665 90.5996 14.4902 90.7084C12.8702 90.9084 10.8503 92.6084 10.7803 93.8184L10.0603 101.028L9.26027 96.6685C8.53027 92.9585 6.75021 92.6684 5.33021 92.6084C4.77504 92.5526 4.21445 92.6178 3.6869 92.7996C3.15935 92.9813 2.67743 93.2751 2.27443 93.661C1.87142 94.0469 1.55686 94.5156 1.35243 95.0348C1.148 95.554 1.05851 96.1114 1.09022 96.6685V116.248" stroke="#009245" stroke-width="2" stroke-miterlimit="10"/>
<path d="M64.2299 39.7285H38.1299V65.8285H64.2299V39.7285Z" stroke="#009245" stroke-width="2" stroke-miterlimit="10"/>
<path d="M45.7002 43.3789H42.2202V46.8589H45.7002V43.3789Z" fill="#009245"/>
<path d="M49.1899 46.9082H45.71V50.3882H49.1899V46.9082Z" fill="#009245"/>
<path d="M52.6899 43.3984H49.21V46.8784H52.6899V43.3984Z" fill="#009245"/>
<path d="M56.1899 46.8984H52.71V50.3784H56.1899V46.8984Z" fill="#009245"/>
<path d="M49.1899 53.8984H45.71V57.3784H49.1899V53.8984Z" fill="#009245"/>
<path d="M56.1899 53.8887H52.71V57.3687H56.1899V53.8887Z" fill="#009245"/>
<path d="M59.6803 43.3789H56.2002V46.8589H59.6803V43.3789Z" fill="#009245"/>
<path d="M45.7002 50.3789H42.2202V53.8589H45.7002V50.3789Z" fill="#009245"/>
<path d="M52.6899 50.3984H49.21V53.8784H52.6899V50.3984Z" fill="#009245"/>
<path d="M59.6803 50.3789H56.2002V53.8589H59.6803V50.3789Z" fill="#009245"/>
<path d="M45.7002 57.4082H42.2202V60.8882H45.7002V57.4082Z" fill="#009245"/>
<path d="M52.6899 57.4277H49.21V60.9077H52.6899V57.4277Z" fill="#009245"/>
<path d="M59.6803 57.4082H56.2002V60.8882H59.6803V57.4082Z" fill="#009245"/>
<path d="M5.08008 26.9972C5.08008 20.1334 7.80672 13.5507 12.6602 8.69727C17.5136 3.84382 24.0963 1.11719 30.9601 1.11719" stroke="#009245" stroke-width="2" stroke-miterlimit="10"/>
<path d="M11.71 26.9977C11.7089 21.7829 13.702 16.7651 17.281 12.9723C20.86 9.17951 25.7539 6.89885 30.96 6.59766" stroke="#009245" stroke-width="2" stroke-miterlimit="10"/>
<path d="M17.8203 26.9974C17.8203 25.2719 18.1602 23.5632 18.8206 21.969C19.4809 20.3748 20.4488 18.9262 21.6689 17.7061C22.8891 16.4859 24.3377 15.518 25.9319 14.8577C27.5261 14.1973 29.2348 13.8574 30.9603 13.8574" stroke="#009245" stroke-width="2" stroke-miterlimit="10"/>
</svg>

<svg width="90" height="117" fill="none" xmlns="http://www.w3.org/2000/svg"><path d="M66.43 99.277H51m25.45-5.499a9.23 9.23 0 00.79-3.75v-60.09a9.25 9.25 0 00-9.25-9.25H34.27a9.25 9.25 0 00-9.25 9.25v59m19.75-61.62H57.4" stroke="#009245" stroke-width="2" stroke-miterlimit="10"/><path d="M40.19 28.009a.69.69 0 100-1.38.69.69 0 000 1.38zm48.37 87.748s.07-23.45 0-31.4c-1.12-5.57-8.78-20.95-8.78-20.95l-2.45-2.46m1.05 35.292l-9.89-16.61a4.81 4.81 0 00-6.46-1.39c-4.41 2.56-1.77 6.12-1.77 6.12l7.09 13-4.75 8.489-.13 9.89m-7.67-29.92h-7.34a2.92 2.92 0 00-2.92 2.92v.34a2.92 2.92 0 002.92 2.92h7.34a2.92 2.92 0 002.92-2.92v-.34a2.92 2.92 0 00-2.92-2.92z" stroke="#009245" stroke-width="2" stroke-miterlimit="10"/><path d="M44.54 116.198l6.58-11c.48-1.56 1.75-4-.91-6.46-2.31-2.13-5.13-.91-6.47 0l-4.18 6.34v-30.3c-.19-1.94-.13-5.13-5.07-5.13-3.42 0-4.5 3.19-4.5 5.07l.12 25.69-1.64-9c-.32-1.9-3.14-2.6-4.43-2.45a4.34 4.34 0 00-3.37 3.09l-.34 9.16-1.18-7.7a4.48 4.48 0 00-4.66-2.8c-1.62.2-3.64 1.9-3.71 3.11l-.72 7.21-.8-4.36c-.73-3.71-2.51-4-3.93-4.06a3.859 3.859 0 00-4.24 4.06v19.58m63.14-76.52h-26.1v26.1h26.1v-26.1z" stroke="#009245" stroke-width="2" stroke-miterlimit="10"/><path d="M45.7 43.379h-3.48v3.48h3.48v-3.48zm3.49 3.529h-3.48v3.48h3.48v-3.48zm3.5-3.51h-3.48v3.48h3.48v-3.48zm3.5 3.5h-3.48v3.48h3.48v-3.48zm-7 7h-3.48v3.48h3.48v-3.48zm7-.009h-3.48v3.48h3.48v-3.48zm3.49-10.51H56.2v3.48h3.48v-3.48zm-13.98 7h-3.48v3.48h3.48v-3.48zm6.99.019h-3.48v3.48h3.48v-3.48zm6.99-.019H56.2v3.48h3.48v-3.48zM45.7 57.408h-3.48v3.48h3.48v-3.48zm6.99.02h-3.48v3.48h3.48v-3.48zm6.99-.02H56.2v3.48h3.48v-3.48z" fill="#009245"/><path d="M5.08 26.997a25.88 25.88 0 0125.88-25.88M11.71 26.998a20.43 20.43 0 0119.25-20.4M17.82 26.997a13.139 13.139 0 0113.14-13.14" stroke="#009245" stroke-width="2" stroke-miterlimit="10"/></svg>
